dist/images/current-areas-of-focus/math.svg

<svg xmlns="http://www.w3.org/2000/svg" xmlns:xlink="http://www.w3.org/1999/xlink" version="1.0" width="788px" height="746px"  viewBox="17.6609 21.1052 713.326 675.514" preserveAspectRatio="xMidYMid meet"><rect id="svgEditorBackground" x="34.5457649230957" y="30.898963928222656" width="669.93701171875" height="636.61279296875" style="fill: none; stroke: none;"/>
<defs><filter id="f"><feGaussianBlur stdDeviation="10" in="SourceAlpha" result="blur"/><feOffset in="blur" dx="10" dy="10" result="off"/><feBlend in="SourceGraphic" in2="off" result="blend"/><feMerge><feMergeNode in="blend"/></feMerge></filter></defs>
<g filter="url(#f)">
<path d="M 155.25669,342.3332 L 164.60057,339.80174 L 191.80938,596.31993 L 94.25291,484.36722 L 72.364742,502.63106 L 65.882239,495.71296 L 98.723503,466.34951 L 178.01623,556.41403 L 155.25669,342.3332 z" fill="#f5a568"/>
<path d="M 140.45942,299.19047 L 34.545764,181.50124 L 37.772578,178.59729 L 172.65917,166.06208 L 198.48604,33.964257 L 201.89213,30.898964 L 304.98248,145.45098 L 276.95384,175.05539 L 273.72723,171.47003 C 281.05316,163.14643 284.84036,155.54733 285.08873,148.67262 C 285.33673,141.79793 282.50306,135.07401 276.58778,128.50084 L 216.89541,62.17182 L 194.10764,173.85171 L 67.180401,186.03763 L 133.16468,259.3581 C 136.92903,263.54086 141.84962,267.3862 147.92659,270.89406 C 152.12715,273.27824 156.68487,274.28676 161.5998,273.91958 C 166.51448,273.55208 172.72149,271.34586 180.22086,267.3009 L 182.82007,271.45088 L 140.45942,299.19047 z" fill="#c871cf"/>
<path d="M 595.6005,314.48353 C 600.83079,314.48362 605.18146,316.31423 608.65262,319.97537 C 612.1235,323.63678 613.85907,328.27275 613.85917,333.88336 C 613.85907,339.49416 612.1235,344.13021 608.65262,347.79135 C 605.18146,351.45267 600.83079,353.28328 595.6005,353.28319 C 590.37003,353.28328 586.01936,351.45267 582.54839,347.79135 C 579.07732,344.13021 577.34174,339.49416 577.34184,333.88336 C 577.34174,328.27275 579.07732,323.63678 582.54839,319.97537 C 586.01936,316.31423 590.37003,314.48362 595.6005,314.48353 L 595.6005,314.48353 z M 639.10739,392.22546 C 644.33768,392.22555 648.68836,394.05616 652.15951,397.71739 C 655.63039,401.37862 657.36597,406.01467 657.36606,411.62529 C 657.36597,417.23608 655.63039,421.87205 652.15951,425.53328 C 648.68836,429.1946 644.33768,431.02521 639.10739,431.02512 C 633.87693,431.02521 629.52625,429.1946 626.05537,425.53328 C 622.58422,421.87205 620.84864,417.23608 620.84873,411.62529 C 620.84864,406.01467 622.58422,401.37862 626.05537,397.71739 C 629.52625,394.05616 633.87693,392.22555 639.10739,392.22546 L 639.10739,392.22546 z M 552.09348,392.22546 C 557.32377,392.22555 561.67453,394.05616 565.14559,397.71739 C 568.61657,401.37862 570.35214,406.01467 570.35214,411.62529 C 570.35214,417.23608 568.61657,421.87205 565.14559,425.53328 C 561.67453,429.1946 557.32377,431.02521 552.09348,431.02512 C 546.8631,431.02521 542.51243,429.1946 539.04146,425.53328 C 535.5703,421.87205 533.83482,417.23608 533.83482,411.62529 C 533.83482,406.01467 535.5703,401.37862 539.04146,397.71739 C 542.51243,394.05616 546.8631,392.22555 552.09348,392.22546 L 552.09348,392.22546 z" fill="#7a8deb"/>
<path d="M 464.40823,183.40702 L 457.54547,185.98863 C 454.68761,168.9709 454.47876,154.78023 456.91908,143.41654 C 459.3593,132.05345 464.55058,123.29226 472.49284,117.13357 C 480.43485,110.97517 498.62215,102.5482 527.054,91.852278 L 624.88212,55.891101 L 639.40387,49.868753 C 641.08285,53.34099 642.04536,55.403523 642.2913,56.056945 L 643.98253,61.296288 L 647.05659,70.212235 L 650.28382,78.791054 L 627.12042,86.385439 L 604.6629,95.113012 C 613.18801,139.09735 621.96861,173.09935 631.00454,197.11944 C 642.92928,228.81974 658.28731,241.13517 677.07884,234.06617 C 685.90239,230.74708 693.03405,221.44251 698.47433,206.15283 L 704.48277,207.24997 C 703.50584,230.93326 700.94166,245.93393 696.79025,252.25197 C 692.63836,258.57023 687.45778,262.89727 681.24867,265.23302 C 655.10422,275.06788 633.73361,257.92607 617.13743,213.80732 C 607.73254,188.80674 599.6528,150.7174 592.898,99.538807 C 589.01656,100.62604 586.01393,101.5691 583.88988,102.3679 C 581.92886,103.10569 579.75368,104.0172 577.36417,105.10253 L 567.65217,109.03564 L 549.72824,114.93909 L 536.27884,120.83757 C 534.97169,121.32959 532.81676,122.04705 529.81399,122.9898 C 552.92821,206.25208 565.6039,257.67454 567.8412,277.2575 C 570.07834,296.84053 564.98769,308.96775 552.5693,313.63933 C 547.8305,315.422 542.96727,315.38598 537.97982,313.53175 C 532.99206,311.67765 529.57625,308.29928 527.73214,303.3973 C 525.27335,296.86113 526.0819,288.34987 530.15795,277.86343 C 536.57648,260.71334 539.23706,244.97696 538.13939,230.65442 C 537.04173,216.33188 530.34473,181.91898 518.04909,127.4156 L 504.53677,131.65912 C 494.07901,135.59327 485.17552,140.80801 477.82622,147.3028 C 470.47705,153.79827 466.00443,165.83281 464.40823,183.40702 L 464.40823,183.40702 z" fill="#6fc584"/>
<path d="M 475.61953,289.31459 L 491.23428,306.53101 L 388.92689,399.3206 C 396.30455,406.62542 403.59777,412.42671 410.80645,416.72424 C 418.0152,421.02199 425.34783,423.58939 432.80419,424.42659 C 440.2607,425.26394 447.79831,424.03354 455.41709,420.73545 C 463.03579,417.43743 471.96465,411.14519 482.20368,401.85872 L 534.596,354.34052 L 550.21068,371.55685 L 497.32292,419.52439 C 489.23076,426.86373 481.76272,432.73403 474.91889,437.13522 C 468.0749,441.53655 461.24737,444.7943 454.43617,446.90846 C 447.62488,449.02268 440.05225,449.7581 431.7182,449.11476 C 423.38414,448.47143 415.42465,446.62311 407.83956,443.5698 C 400.2544,440.51656 392.69331,436.16229 385.15623,430.50692 C 377.61921,424.85179 370.21841,418.01943 362.954,410.00972 C 351.12128,396.96343 342.6092,385.00624 337.41768,374.13823 C 332.22637,363.27045 329.63016,351.77953 329.62916,339.66525 C 329.62835,327.55135 332.52854,316.22986 338.32972,305.70076 C 344.13096,295.17205 353.71997,283.84147 367.09666,271.70894 L 417.87878,225.65115 L 433.49353,242.86756 L 382.58751,289.03773 C 374.41282,296.45206 368.19824,302.9162 363.94385,308.43006 C 359.68952,313.94431 356.78696,319.2482 355.23629,324.3415 C 353.68566,329.43519 353.2123,335.09426 353.81612,341.3188 C 354.42008,347.54349 356.39024,354.07152 359.72667,360.90281 C 363.06317,367.73432 367.63295,374.76404 373.43595,381.99189 L 475.61953,289.31459 z" fill="#f17768"/>
<path d="M 290.59926,287.38534 L 324.37158,174.19833 C 328.79314,160.68048 333.7884,148.95804 339.35703,139.03123 C 344.92549,129.10503 350.31536,121.96422 355.52687,117.60883 C 359.31126,114.41497 364.2577,111.98329 370.36628,110.31394 C 376.47454,108.64531 382.01249,108.46895 386.98019,109.785 C 393.51627,111.51748 398.65521,115.22273 402.39701,120.90074 C 406.13848,126.57947 407.31644,132.0331 405.93096,137.26177 C 404.30256,143.40612 401.26272,147.88196 396.81135,150.68915 C 392.35963,153.49719 387.58485,154.22539 382.4868,152.87412 C 377.91129,151.66187 373.56725,147.9924 369.45491,141.86578 C 367.14093,138.4548 364.8728,136.45465 362.65072,135.86552 C 360.42825,135.27683 358.31425,135.73091 356.3087,137.22776 C 354.30298,138.72523 352.69387,141.76142 351.48159,146.33651 C 350.06104,151.69651 348.13782,161.32983 345.71162,175.23665 C 336.31027,230.24635 327.24478,274.22229 318.51507,307.16474 C 316.08994,316.31558 306.09855,350.32276 288.54098,409.18658 C 282.10202,430.84428 276.30855,447.42666 271.16072,458.93366 C 264.3198,474.18912 257.88112,484.75958 251.84462,490.64477 C 245.80801,496.52993 239.89219,500.24363 234.09718,501.78588 C 228.3022,503.32801 222.46335,503.31961 216.58085,501.76086 C 209.78318,499.95932 204.81628,496.26475 201.6802,490.677 C 198.54414,485.08913 197.89421,478.83099 199.73024,471.90264 C 201.28915,466.02004 204.20297,461.75564 208.47172,459.10945 C 212.7406,456.46329 217.42415,455.8158 222.52239,457.16684 C 227.75129,458.55252 231.70708,461.8392 234.38947,467.02708 C 237.07189,472.21484 239.72037,475.15521 242.33494,475.84808 C 244.55722,476.43699 246.62982,476.00686 248.55286,474.55785 C 250.4758,473.10868 252.00885,470.2272 253.15205,465.9133 C 254.60703,460.42287 256.09724,452.42351 257.62295,441.91526 C 260.35439,422.63278 264.50947,400.09009 270.08836,374.28697 C 277.14545,341.32099 283.9824,312.35387 290.59926,287.38534 L 290.59926,287.38534 z" fill="#946edb"/>
<path d="M 473.01674,533.41071 C 483.87233,508.50638 495.76579,491.26482 508.69727,481.68602 C 521.62814,472.10768 539.26878,467.31836 561.61921,467.31805 C 587.32171,467.31836 609.0332,476.57761 626.754,495.09612 C 644.47419,513.6151 653.33436,537.6414 653.33482,567.17536 C 653.33436,596.39038 644.71358,620.41684 627.47248,639.25474 C 610.23061,658.0928 590.99347,667.51175 569.76106,667.51175 C 555.55248,667.51175 542.66131,663.12151 531.08724,654.34104 C 519.51286,645.56071 505.50413,627.1219 489.06105,599.02443 C 478.84362,618.82035 467.66848,633.06863 455.53579,641.7691 C 443.40263,650.46973 428.71542,654.82012 411.47401,654.81997 C 388.48511,654.82012 369.04843,646.59842 353.16397,630.15503 C 337.27936,613.71179 329.33705,592.47908 329.33705,566.45704 C 329.33705,540.27561 336.68073,519.12274 351.36794,502.99843 C 366.05514,486.87473 383.21686,478.81273 402.85323,478.81243 C 417.54029,478.81273 430.03253,482.60419 440.32965,490.18711 C 450.62646,497.77033 461.52221,512.1783 473.01674,533.41071 L 473.01674,533.41071 z M 496.00549,582.02226 C 507.34001,605.80949 518.79454,622.29257 530.36892,631.47213 C 541.94283,640.65169 555.39294,645.24147 570.71893,645.24132 C 590.35484,645.24147 606.75824,638.13734 619.92926,623.92891 C 633.09951,609.72064 639.68487,590.72304 639.68518,566.93597 C 639.68487,543.46844 632.74043,524.07176 618.8517,508.74562 C 604.96235,493.42009 589.39698,485.75717 572.15572,485.75687 C 561.13997,485.75717 551.52148,488.59092 543.30009,494.25795 C 535.07824,499.9256 527.61487,508.90547 520.90997,521.19786 C 517.07836,528.38215 508.77681,548.65685 496.00549,582.02226 L 496.00549,582.02226 z M 466.0723,551.84952 C 458.24953,534.28888 449.30951,521.35771 439.25209,513.05601 C 429.19436,504.75477 416.82196,500.60408 402.13476,500.60377 C 385.21243,500.60408 371.04401,506.55081 359.62948,518.44411 C 348.21495,530.33773 342.50761,546.26219 342.50776,566.21749 C 342.50761,587.45036 348.1351,604.41254 359.39009,617.10416 C 370.64492,629.79595 383.37655,636.14176 397.58498,636.14161 C 412.75096,636.14176 426.16107,629.35686 437.81529,615.78706 C 445.31836,606.84704 454.73731,585.53463 466.0723,551.84952 L 466.0723,551.84952 z" fill="#6dc5d3"/>
</g>
</svg>

<svg xmlns="http://www.w3.org/2000/svg" version="1" width="788" height="746" viewBox="17.6609 21.1052 713.326 675.514"><path fill="none" d="M34.546 30.9h669.937V667.51H34.546z"/><defs><filter id="a"><feGaussianBlur stdDeviation="10" in="SourceAlpha" result="blur"/><feOffset in="blur" dx="10" dy="10" result="off"/><feBlend in="SourceGraphic" in2="off" result="blend"/><feMerge><feMergeNode in="blend"/></feMerge></filter></defs><g filter="url(#a)"><path d="M155.257 342.333l9.344-2.53 27.21 256.517-97.557-111.953-21.888 18.264-6.483-6.917 32.842-29.363 79.292 90.064-22.76-214.08z" fill="#f5a568"/><path d="M140.46 299.19L34.545 181.5l3.227-2.903 134.886-12.535 25.826-132.098 3.406-3.065 103.09 114.55-28.028 29.605-3.227-3.585c7.326-8.324 11.113-15.923 11.362-22.797.247-6.875-2.587-13.6-8.502-20.172l-59.693-66.328-22.787 111.68L67.18 186.038l65.985 73.32c3.764 4.183 8.685 8.028 14.762 11.536 4.2 2.384 8.758 3.393 13.673 3.026 4.914-.368 11.12-2.574 18.62-6.62l2.6 4.15-42.36 27.74z" fill="#c871cf"/><path d="M595.6 314.484c5.23 0 9.58 1.83 13.053 5.49 3.47 3.663 5.206 8.3 5.206 13.91 0 5.61-1.736 10.246-5.207 13.907-3.472 3.663-7.822 5.493-13.053 5.493-5.23 0-9.58-1.83-13.052-5.492-3.47-3.66-5.206-8.296-5.206-13.907 0-5.61 1.735-10.246 5.206-13.908 3.47-3.66 7.822-5.49 13.053-5.49zm43.507 77.74c5.23.002 9.58 1.832 13.053 5.493 3.47 3.662 5.206 8.298 5.206 13.908 0 5.61-1.736 10.247-5.206 13.908-3.472 3.662-7.822 5.492-13.053 5.492-5.23 0-9.58-1.83-13.052-5.492-3.47-3.66-5.206-8.297-5.206-13.908 0-5.61 1.734-10.246 5.205-13.908 3.47-3.66 7.822-5.49 13.052-5.492zm-87.014 0c5.23.002 9.582 1.832 13.053 5.493 3.47 3.662 5.206 8.298 5.206 13.908 0 5.61-1.735 10.247-5.206 13.908-3.47 3.662-7.822 5.492-13.053 5.492-5.23 0-9.58-1.83-13.052-5.492-3.47-3.66-5.205-8.297-5.205-13.908 0-5.61 1.735-10.246 5.206-13.908 3.472-3.66 7.823-5.49 13.053-5.492z" fill="#7a8deb"/><path d="M464.408 183.407l-6.863 2.582c-2.857-17.02-3.066-31.21-.626-42.573 2.44-11.364 7.63-20.125 15.573-26.283 7.942-6.16 26.13-14.586 54.56-25.282l97.83-35.96 14.52-6.023c1.68 3.47 2.642 5.534 2.888 6.187l1.693 5.24 3.074 8.915 3.227 8.58-23.164 7.593-22.457 8.728c8.525 43.984 17.306 77.986 26.342 102.006 11.924 31.7 27.282 44.015 46.074 36.946 8.822-3.32 15.954-12.623 21.394-27.913l6.01 1.097c-.978 23.683-3.542 38.684-7.694 45.002-4.152 6.318-9.332 10.645-15.54 12.98-26.146 9.836-47.516-7.306-64.113-51.425-9.404-25-17.484-63.09-24.24-114.268-3.88 1.086-6.883 2.03-9.007 2.828-1.96.738-4.136 1.65-6.526 2.735l-9.712 3.933-17.924 5.903-13.45 5.898c-1.306.492-3.46 1.21-6.464 2.152 23.114 83.262 35.79 134.685 38.027 154.267 2.238 19.584-2.852 31.71-15.27 36.382-4.74 1.782-9.603 1.746-14.59-.108-4.988-1.854-8.404-5.233-10.248-10.135-2.46-6.536-1.65-15.047 2.426-25.534 6.418-17.15 9.08-32.886 7.98-47.21-1.096-14.32-7.793-48.734-20.09-103.237l-13.51 4.243c-10.46 3.933-19.362 9.148-26.712 15.643-7.35 6.495-11.822 18.53-13.418 36.104z" fill="#6fc584"/><path d="M475.62 289.315l15.614 17.216-102.307 92.79c7.378 7.305 14.67 13.107 21.88 17.404 7.208 4.298 14.54 6.865 21.997 7.703 7.457.837 14.994-.393 22.613-3.692 7.62-3.298 16.548-9.59 26.787-18.876l52.392-47.52 15.615 17.217-52.887 47.967c-8.092 7.34-15.56 13.21-22.404 17.61-6.845 4.403-13.673 7.66-20.484 9.774-6.81 2.115-14.384 2.85-22.718 2.207-8.334-.644-16.293-2.492-23.878-5.545-7.586-3.053-15.147-7.408-22.684-13.063-7.537-5.655-14.938-12.488-22.202-20.497-11.833-13.047-20.345-25.004-25.536-35.872-5.192-10.868-7.788-22.358-7.79-34.473 0-12.114 2.9-23.435 8.702-33.964 5.8-10.528 15.39-21.86 28.767-33.99l50.782-46.06 15.614 17.218-50.906 46.17c-8.175 7.414-14.39 13.878-18.644 19.392-4.254 5.514-7.157 10.818-8.708 15.91-1.55 5.095-2.024 10.754-1.42 16.98.604 6.223 2.574 12.752 5.91 19.583 3.337 6.83 7.907 13.86 13.71 21.09l102.184-92.678z" fill="#f17768"/><path d="M290.6 287.385l33.772-113.187c4.42-13.518 9.416-25.24 14.985-35.167 5.568-9.925 10.958-17.066 16.17-21.42 3.784-3.195 8.73-5.627 14.84-7.296 6.108-1.67 11.645-1.845 16.613-.53 6.536 1.733 11.675 5.44 15.417 11.117 3.74 5.68 4.92 11.133 3.534 16.362-1.627 6.144-4.667 10.62-9.12 13.427-4.45 2.807-9.225 3.535-14.323 2.184-4.576-1.212-8.92-4.882-13.032-11.008-2.314-3.41-4.582-5.41-6.804-6-2.222-.59-4.336-.135-6.34 1.362-2.007 1.497-3.616 4.533-4.828 9.11-1.42 5.36-3.344 14.992-5.77 28.9-9.402 55.008-18.467 98.984-27.197 131.927-2.425 9.15-12.416 43.158-29.974 102.022-6.438 21.657-12.23 38.24-17.38 49.747-6.84 15.255-13.28 25.826-19.315 31.71-6.037 5.886-11.953 9.6-17.748 11.142-5.795 1.542-11.634 1.534-17.516-.025-6.797-1.8-11.764-5.495-14.9-11.083-3.136-5.588-3.786-11.846-1.95-18.774 1.56-5.883 4.473-10.147 8.742-12.794 4.27-2.647 8.952-3.294 14.05-1.943 5.23 1.386 9.185 4.672 11.867 9.86 2.682 5.188 5.33 8.128 7.945 8.82 2.222.59 4.295.16 6.218-1.29 1.923-1.448 3.456-4.33 4.6-8.644 1.454-5.49 2.944-13.49 4.47-23.998 2.73-19.282 6.886-41.825 12.465-67.628 7.057-32.966 13.894-61.933 20.51-86.902z" fill="#946edb"/><path d="M473.017 533.41c10.855-24.904 22.75-42.145 35.68-51.724 12.93-9.578 30.572-14.368 52.922-14.368 25.702 0 47.413 9.26 65.134 27.778 17.72 18.52 26.58 42.545 26.58 72.08 0 29.214-8.62 53.24-25.862 72.08-17.24 18.837-36.48 28.256-57.71 28.256-14.21 0-27.1-4.39-38.675-13.17-11.574-8.78-25.583-27.22-42.026-55.318-10.216 19.796-21.392 34.045-33.524 42.745-12.133 8.7-26.82 13.05-44.062 13.05-22.99 0-42.426-8.222-58.31-24.665-15.885-16.443-23.827-37.676-23.827-63.698 0-26.18 7.344-47.334 22.03-63.46 14.688-16.122 31.85-24.184 51.486-24.185 14.687 0 27.18 3.792 37.477 11.375 10.296 7.583 21.192 21.99 32.687 43.224zm22.988 48.612c11.335 23.787 22.79 40.27 34.364 49.45 11.573 9.18 25.023 13.77 40.35 13.77 19.635 0 36.038-7.105 49.21-21.313 13.17-14.21 19.755-33.207 19.755-56.994 0-23.468-6.945-42.864-20.833-58.19-13.89-15.326-29.455-22.99-46.696-22.99-11.016 0-20.635 2.835-28.856 8.502-8.222 5.668-15.685 14.647-22.39 26.94-3.832 7.184-12.133 27.46-24.905 60.824zm-29.933-30.172c-7.822-17.56-16.762-30.492-26.82-38.794-10.058-8.3-22.43-12.452-37.117-12.452-16.923 0-31.09 5.947-42.506 17.84-11.415 11.894-17.122 27.818-17.122 47.773 0 21.233 5.627 38.196 16.882 50.887 11.255 12.692 23.987 19.038 38.195 19.038 15.166 0 28.576-6.785 40.23-20.355 7.503-8.94 16.922-30.252 28.257-63.937z" fill="#6dc5d3"/></g></svg>
